X: 14140
T: Frog In The Well, The
R: jig
M: 6/8
K: Eminor
~E3 GFE|BGE GFE|D (3FED FED|ADG FED|
~E3 GFE|BGE GFE|BGB AFA|GBG E2||

